X:1
T:The Copper Kettle
C:Josephine Keegan
R:Jig
M:6/8
K:D
|: A/c/ | dAG FDF | ABA FDB, | A,DF AdF | EFD EFA |\
dAG FDA | BGB ABc | dfd eag | fdc d2 :|]
f/g/ | afd Bcd | Acd FAd | DFA dAF | EFD Efg |\
afd Bcd | Acd FAd | BGB AdF | DC,E D2f/g/  |\
afd Bcd | Acd FAd | DFA daf | efd efg |\
afd Bef | gec Afe | dAF GFE | DC,E D2 :|]
